icons/2_Variations/Postmark fg.var.svg

<svg xmlns="http://www.w3.org/2000/svg" width="1024" height="1024" fill="none">
   <g clip-path="url(#a)">
      <path fill="#F9DE81" d="M512 1024c282.77 0 512-229.23 512-512S794.77 0 512 0 0 229.23 0 512s229.23 512 512 512Z"/>
      <path fill="#56595B" d="M516.42 510.51c28.89 0 45.62-12.43 45.62-35.11 0-23.3-16.72-35.11-45.62-35.11h-25.55v70.53h25.55v-.31ZM739.5 700.4v21.33a17.767 17.767 0 0 0-12.565 5.205 17.767 17.767 0 0 0-5.205 12.565H700.4a17.779 17.779 0 0 0-17.775-17.775A17.779 17.779 0 0 0 664.85 739.5h-21.33a17.779 17.779 0 0 0-17.775-17.775A17.779 17.779 0 0 0 607.97 739.5h-21.32c0-4.713-1.872-9.233-5.205-12.565a17.767 17.767 0 0 0-12.565-5.205 17.765 17.765 0 0 0-12.572 5.201A17.763 17.763 0 0 0 551.1 739.5h-21.33a17.779 17.779 0 0 0-17.775-17.775A17.779 17.779 0 0 0 494.22 739.5H472.9a17.779 17.779 0 0 0-17.775-17.775A17.779 17.779 0 0 0 437.35 739.5H416a17.779 17.779 0 0 0-17.775-17.775A17.779 17.779 0 0 0 380.45 739.5h-21.3a17.779 17.779 0 0 0-17.775-17.775A17.779 17.779 0 0 0 323.6 739.5h-21.33c0-4.713-1.872-9.233-5.205-12.565a17.767 17.767 0 0 0-12.565-5.205V700.4a17.779 17.779 0 0 0 17.775-17.775A17.779 17.779 0 0 0 284.5 664.85v-21.33a17.779 17.779 0 0 0 17.775-17.775A17.779 17.779 0 0 0 284.5 607.97v-21.32c4.713 0 9.233-1.872 12.565-5.205a17.767 17.767 0 0 0 5.205-12.565 17.765 17.765 0 0 0-5.201-12.572A17.763 17.763 0 0 0 284.5 551.1v-21.33a17.779 17.779 0 0 0 17.775-17.775A17.779 17.779 0 0 0 284.5 494.22V472.9a17.779 17.779 0 0 0 17.775-17.775A17.779 17.779 0 0 0 284.5 437.35V416a17.779 17.779 0 0 0 17.775-17.775A17.779 17.779 0 0 0 284.5 380.45v-21.3a17.779 17.779 0 0 0 17.775-17.775A17.779 17.779 0 0 0 284.5 323.6v-21.33c4.713 0 9.233-1.872 12.565-5.205a17.767 17.767 0 0 0 5.205-12.565h21.33a17.779 17.779 0 0 0 17.775 17.775A17.779 17.779 0 0 0 359.15 284.5h21.33a17.779 17.779 0 0 0 17.775 17.775A17.779 17.779 0 0 0 416.03 284.5h21.33a17.779 17.779 0 0 0 17.775 17.775A17.779 17.779 0 0 0 472.91 284.5h21.33a17.779 17.779 0 0 0 17.775 17.775A17.779 17.779 0 0 0 529.79 284.5h21.31a17.779 17.779 0 0 0 17.775 17.775A17.779 17.779 0 0 0 586.65 284.5H608a17.779 17.779 0 0 0 17.775 17.775A17.779 17.779 0 0 0 643.55 284.5h21.33a17.779 17.779 0 0 0 17.775 17.775A17.779 17.779 0 0 0 700.43 284.5h21.33c0 4.713 1.872 9.233 5.205 12.565a17.767 17.767 0 0 0 12.565 5.205v21.33a17.779 17.779 0 0 0-17.775 17.775 17.779 17.779 0 0 0 17.775 17.775v21.33a17.779 17.779 0 0 0-17.775 17.775 17.779 17.779 0 0 0 17.775 17.775v21.33a17.779 17.779 0 0 0-17.775 17.775 17.779 17.779 0 0 0 17.775 17.775v21.33a17.779 17.779 0 0 0-17.775 17.775 17.779 17.779 0 0 0 17.775 17.775v21.31a17.767 17.767 0 0 0-12.565 5.205 17.767 17.767 0 0 0 0 25.13 17.767 17.767 0 0 0 12.565 5.205V608a17.779 17.779 0 0 0-17.775 17.775 17.779 17.779 0 0 0 17.775 17.775v21.33a17.779 17.779 0 0 0-17.775 17.775 17.779 17.779 0 0 0 17.775 17.775l-.03-.03Zm-56.88-355.17a3.855 3.855 0 0 0-2.377-3.557 3.855 3.855 0 0 0-1.473-.293H345.22a3.855 3.855 0 0 0-3.557 2.377 3.855 3.855 0 0 0-.293 1.473v333.54a3.888 3.888 0 0 0 3.85 3.85h333.55a3.85 3.85 0 0 0 3.85-3.85V345.23Zm-328.81 8.59h316.37v316.36H353.81V353.82Zm83.54 235.31v29.52h86.06v-29.53H500.6c-6.08 0-9.73-3.73-9.73-9.63V541h28c43.79 0 78.46-22.68 78.46-66.18 0-43.19-34.67-65.87-78.46-65.87h-81.5v29.21h11.23c5.78 0 9.43 3.73 9.43 9.63v131.7c0 5.9-3.65 9.63-9.43 9.63h-11.25v.01Z"/>
   </g>
   <defs>
      <clipPath id="a">
         <path fill="#fff" d="M0 0h1024v1024H0z"/>
      </clipPath>
   </defs>
</svg>

<svg width="1024" height="1024" viewBox="0 0 1024 1024" fill="none" xmlns="http://www.w3.org/2000/svg">
<g clip-path="url(#clip0_3_224)">
<path d="M512 1024C794.77 1024 1024 794.77 1024 512C1024 229.23 794.77 0 512 0C229.23 0 0 229.23 0 512C0 794.77 229.23 1024 512 1024Z" fill="#F9DE81"/>
<path d="M516.42 510.51C545.31 510.51 562.04 498.08 562.04 475.4C562.04 452.1 545.32 440.29 516.42 440.29H490.87V510.82H516.42V510.51ZM739.5 700.4V721.73C734.787 721.73 730.267 723.602 726.935 726.935C723.602 730.267 721.73 734.787 721.73 739.5H700.4C700.4 734.786 698.527 730.265 695.194 726.931C691.86 723.598 687.339 721.725 682.625 721.725C677.911 721.725 673.39 723.598 670.056 726.931C666.723 730.265 664.85 734.786 664.85 739.5H643.52C643.52 734.786 641.647 730.265 638.314 726.931C634.98 723.598 630.459 721.725 625.745 721.725C621.031 721.725 616.51 723.598 613.176 726.931C609.843 730.265 607.97 734.786 607.97 739.5H586.65C586.65 734.787 584.778 730.267 581.445 726.935C578.113 723.602 573.593 721.73 568.88 721.73C566.546 721.729 564.234 722.187 562.077 723.08C559.92 723.972 557.959 725.281 556.308 726.931C554.657 728.581 553.347 730.541 552.454 732.697C551.56 734.854 551.1 737.166 551.1 739.5H529.77C529.77 734.786 527.897 730.265 524.564 726.931C521.23 723.598 516.709 721.725 511.995 721.725C507.281 721.725 502.76 723.598 499.426 726.931C496.093 730.265 494.22 734.786 494.22 739.5H472.9C472.9 734.786 471.027 730.265 467.694 726.931C464.36 723.598 459.839 721.725 455.125 721.725C450.411 721.725 445.89 723.598 442.556 726.931C439.223 730.265 437.35 734.786 437.35 739.5H416C416 734.786 414.127 730.265 410.794 726.931C407.46 723.598 402.939 721.725 398.225 721.725C393.511 721.725 388.99 723.598 385.656 726.931C382.323 730.265 380.45 734.786 380.45 739.5H359.15C359.15 734.786 357.277 730.265 353.944 726.931C350.61 723.598 346.089 721.725 341.375 721.725C336.661 721.725 332.14 723.598 328.806 726.931C325.473 730.265 323.6 734.786 323.6 739.5H302.27C302.27 734.787 300.398 730.267 297.065 726.935C293.733 723.602 289.213 721.73 284.5 721.73V700.4C289.214 700.4 293.735 698.527 297.069 695.194C300.402 691.86 302.275 687.339 302.275 682.625C302.275 677.911 300.402 673.39 297.069 670.056C293.735 666.723 289.214 664.85 284.5 664.85V643.52C289.214 643.52 293.735 641.647 297.069 638.314C300.402 634.98 302.275 630.459 302.275 625.745C302.275 621.031 300.402 616.51 297.069 613.176C293.735 609.843 289.214 607.97 284.5 607.97V586.65C289.213 586.65 293.733 584.778 297.065 581.445C300.398 578.113 302.27 573.593 302.27 568.88C302.271 566.546 301.813 564.234 300.92 562.077C300.028 559.92 298.719 557.959 297.069 556.308C295.419 554.657 293.459 553.347 291.303 552.454C289.146 551.56 286.834 551.1 284.5 551.1V529.77C289.214 529.77 293.735 527.897 297.069 524.564C300.402 521.23 302.275 516.709 302.275 511.995C302.275 507.281 300.402 502.76 297.069 499.426C293.735 496.093 289.214 494.22 284.5 494.22V472.9C289.214 472.9 293.735 471.027 297.069 467.694C300.402 464.36 302.275 459.839 302.275 455.125C302.275 450.411 300.402 445.89 297.069 442.556C293.735 439.223 289.214 437.35 284.5 437.35V416C289.214 416 293.735 414.127 297.069 410.794C300.402 407.46 302.275 402.939 302.275 398.225C302.275 393.511 300.402 388.99 297.069 385.656C293.735 382.323 289.214 380.45 284.5 380.45V359.15C289.214 359.15 293.735 357.277 297.069 353.944C300.402 350.61 302.275 346.089 302.275 341.375C302.275 336.661 300.402 332.14 297.069 328.806C293.735 325.473 289.214 323.6 284.5 323.6V302.27C289.213 302.27 293.733 300.398 297.065 297.065C300.398 293.733 302.27 289.213 302.27 284.5H323.6C323.6 289.214 325.473 293.735 328.806 297.069C332.14 300.402 336.661 302.275 341.375 302.275C346.089 302.275 350.61 300.402 353.944 297.069C357.277 293.735 359.15 289.214 359.15 284.5H380.48C380.48 289.214 382.353 293.735 385.686 297.069C389.02 300.402 393.541 302.275 398.255 302.275C402.969 302.275 407.49 300.402 410.824 297.069C414.157 293.735 416.03 289.214 416.03 284.5H437.36C437.36 289.214 439.233 293.735 442.566 297.069C445.9 300.402 450.421 302.275 455.135 302.275C459.849 302.275 464.37 300.402 467.704 297.069C471.037 293.735 472.91 289.214 472.91 284.5H494.24C494.24 289.214 496.113 293.735 499.446 297.069C502.78 300.402 507.301 302.275 512.015 302.275C516.729 302.275 521.25 300.402 524.584 297.069C527.917 293.735 529.79 289.214 529.79 284.5H551.1C551.1 289.214 552.973 293.735 556.306 297.069C559.64 300.402 564.161 302.275 568.875 302.275C573.589 302.275 578.11 300.402 581.444 297.069C584.777 293.735 586.65 289.214 586.65 284.5H608C608 289.214 609.873 293.735 613.206 297.069C616.54 300.402 621.061 302.275 625.775 302.275C630.489 302.275 635.01 300.402 638.344 297.069C641.677 293.735 643.55 289.214 643.55 284.5H664.88C664.88 289.214 666.753 293.735 670.086 297.069C673.42 300.402 677.941 302.275 682.655 302.275C687.369 302.275 691.89 300.402 695.224 297.069C698.557 293.735 700.43 289.214 700.43 284.5H721.76C721.76 289.213 723.632 293.733 726.965 297.065C730.297 300.398 734.817 302.27 739.53 302.27V323.6C734.816 323.6 730.295 325.473 726.961 328.806C723.628 332.14 721.755 336.661 721.755 341.375C721.755 346.089 723.628 350.61 726.961 353.944C730.295 357.277 734.816 359.15 739.53 359.15V380.48C734.816 380.48 730.295 382.353 726.961 385.686C723.628 389.02 721.755 393.541 721.755 398.255C721.755 402.969 723.628 407.49 726.961 410.824C730.295 414.157 734.816 416.03 739.53 416.03V437.36C734.816 437.36 730.295 439.233 726.961 442.566C723.628 445.9 721.755 450.421 721.755 455.135C721.755 459.849 723.628 464.37 726.961 467.704C730.295 471.037 734.816 472.91 739.53 472.91V494.24C734.816 494.24 730.295 496.113 726.961 499.446C723.628 502.78 721.755 507.301 721.755 512.015C721.755 516.729 723.628 521.25 726.961 524.584C730.295 527.917 734.816 529.79 739.53 529.79V551.1C734.817 551.1 730.297 552.972 726.965 556.305C723.632 559.637 721.76 564.157 721.76 568.87C721.76 573.583 723.632 578.103 726.965 581.435C730.297 584.768 734.817 586.64 739.53 586.64V608C734.816 608 730.295 609.873 726.961 613.206C723.628 616.54 721.755 621.061 721.755 625.775C721.755 630.489 723.628 635.01 726.961 638.344C730.295 641.677 734.816 643.55 739.53 643.55V664.88C734.816 664.88 730.295 666.753 726.961 670.086C723.628 673.42 721.755 677.941 721.755 682.655C721.755 687.369 723.628 691.89 726.961 695.224C730.295 698.557 734.816 700.43 739.53 700.43L739.5 700.4ZM682.62 345.23C682.62 344.724 682.52 344.224 682.327 343.757C682.133 343.29 681.85 342.865 681.492 342.508C681.135 342.15 680.71 341.867 680.243 341.673C679.776 341.48 679.276 341.38 678.77 341.38H345.22C344.714 341.38 344.214 341.48 343.747 341.673C343.28 341.867 342.855 342.15 342.498 342.508C342.14 342.865 341.857 343.29 341.663 343.757C341.47 344.224 341.37 344.724 341.37 345.23V678.77C341.38 679.788 341.789 680.761 342.509 681.481C343.229 682.201 344.202 682.61 345.22 682.62H678.77C679.791 682.62 680.77 682.214 681.492 681.492C682.214 680.77 682.62 679.791 682.62 678.77V345.23ZM353.81 353.82H670.18V670.18H353.81V353.82ZM437.35 589.13V618.65H523.41V589.12H500.6C494.52 589.12 490.87 585.39 490.87 579.49V541H518.87C562.66 541 597.33 518.32 597.33 474.82C597.33 431.63 562.66 408.95 518.87 408.95H437.37V438.16H448.6C454.38 438.16 458.03 441.89 458.03 447.79V579.49C458.03 585.39 454.38 589.12 448.6 589.12H437.35V589.13Z" fill="#56595B"/>
</g>
<defs>
<clipPath id="clip0_3_224">
<rect width="1024" height="1024" fill="white"/>
</clipPath>
</defs>
</svg>
